X: 18519
T: I Ha'e A Wife O' Ma Ain
R: slip jig
M: 9/8
K: Eminor
|:E3 G2A B3|E3 G2A BGD|E3 G2A B3|D3 dcB AFD:|
|:gag fgf e3|E3 G2A BGE|g3 fgf e3|D3 dcB AFD:|

